X: 37
M:2/4
L:1/8
K:C
f | eccf | ecgc | ecgc | A2 ff | edcf |
ecgc | BddB | G2 Bg | eccf |
ecgc | ecgc | A2 f2 | edcf | ecgc |
ecgc | A2 c2 | AcBd | cedc | BGdB |


